!!!OTL: MIR GLIEBT IM GRUENEN MAIEN
!!!ARE: Europa, Mitteleuropa, Deutschland
!!!SCT: E0383
!!!YEM: Copyright 1995, estate of Helmut Schaffrath.
**kern
*ICvox
*Ivox
*M6/4
*k[b-e-]
*g:
{8g
8a
=1
2b-
4b-
4b-
4cc
4cc
=2
2.dd
4.b-
8cc}
{4dd
=3
2ee-
4dd
4dd
2cc
=4
[2.b-
2b-]}
{8g
8a
=5
2b-
4b-
4b-
4cc
4cc
=6
2.dd
4.b-
8cc}
{4dd
=7
2ee-
4dd
4dd
2cc
=8
[2.b-
2b-]}
{8b-
8cc
=9
2dd
4dd
4dd
4cc
4b-
=10
4.a
8g
8a
8b-
4.a
8b-}
{4cc
=11
2b-
4a
2g
4f#
=12
[2.g
2g]}
==
!!!AGN: Liebes - Lied, Jahreszeiten, Fruehling
!!!ONB: ESAC (Essen Associative Code) Database: ERK1
!!!AMT: compound duple
!!!AIN: vox
!!!EED: Helmut Schaffrath
!!!EEV: 1.0
*-
